X:512
T:Lord Huntly's Cave 
C:Joe Buchanan's Scottish Tome - Page 033.0
I:033 0
R:Quickstep
Z:Carl Allison
L:1/16
M:4/4
K:D
de | f2A2 gfed | f2A2 d2cd | e2A2 agfe | dcdf eAde |
| f2A2 gfed | f2A2 d2f2 | eaca Aaca | {a}d4- d4 |
ef | a2f2 d2a2 | fAa2 d2cd | e2A2 agfe | dcdf eAfg |
|a2f2 d2a2 | fAa2 d2cd | eaca aca d4- d2 :|
de | fAaA gfed | fABc dcdf | eAcA agfe | dcdf eAde |
| fAaA gfed | fABc dcdf | eaa Aaca | d4- d2 :|
fg | afdB Acde | faA ddcd | eAcA agfe | dcdf eAfg |
| afdB Acde | fAaA ddcd | ecAa caAa | {a}d4- d2 :|
.d.e | ((3fff) Af ((3aaa) Aa | ((3fff) Af ((3ddd) cd | eAcA agfe | dcdf e{ee}Ade |
| ((3fff) f4 aaa Aa | .fff Af ddd cd | eee Ga caAa d4- d4 :|
fg | aaa fd AAA de | fada fff df | eAcA agfe | dcdf e2{ee}ef |
| aaa fd AAA de | fada fdad | eaca Aaca | {a}d4- d2 :|

